logos/tezos_ios-fireblocks.svg

<svg height="1000" viewBox="0 0 112 112" width="1000" xmlns="http://www.w3.org/2000/svg"><path d="m112 0c.552285 0 1 .44771525 1 1v111c0 .552285-.447715 1-1 1h-111c-.55228475 0-1-.447715-1-1v-111c0-.55228475.44771525-1 1-1zm-55.5002511 31.3888889-31.3888889 50.2222222h62.7777778z" fill="#002e7f" fill-rule="evenodd"/></svg>

<?xml version="1.0" encoding="UTF-8"?>
<svg width="1000px" height="1000px" viewBox="0 0 112 112" version="1.1" xmlns="http://www.w3.org/2000/svg" xmlns:xlink="http://www.w3.org/1999/xlink">
    <title>FireBlocks Navy</title>
    <g id="FireBlocks-Navy" stroke="none" stroke-width="1" fill="none" fill-rule="evenodd">
        <g id="Brand/Logomark" fill="#002E7F">
            <g id="Brand/Brandmark/Navy">
                <path d="M112,0 C112.552285,1.45285917e-15 113,0.44771525 113,1 L113,1 L113,112 C113,112.552285 112.552285,113 112,113 L112,113 L1,113 C0.44771525,113 6.76353751e-17,112.552285 0,112 L0,112 L0,1 C1.48667686e-15,0.44771525 0.44771525,1.01453063e-16 1,0 L1,0 Z M56.4997489,31.3888889 L25.11086,81.6111111 L87.8886378,81.6111111 L56.4997489,31.3888889 Z" id="Brand/Brandmark"></path>
            </g>
        </g>
    </g>
</svg>
